X:4814
T:En sup till, det beh\"over jag - vispolska efter August Str\"omberg
Z:L. Sohlman, \"Alta, Sweden
Q:1/4=110
R:Polska
O:Sweden
M:3/4
L:1/8
A:Sm\aa{}land (Sweden)
K:Gm
G2 ^F2 G2|A>G ^FG A2|B>d cB AG|(^F/G/)A/F/ D3D|\
G2 ^F2 G2|A>G ^FG A2|
B>d cB AG|1 (^F/G/)A/F/ G3D:|2 (^F/G/)A/F/ G3 =B|\
K:G
L:1/16 
|:d2B2 (BG)(Bd) (BG)(Bd)|d2c2 (AF)(Ac) (AF)(Ac)|
B2AB c2B2 A2G2|(FG)AF D6 B2|\
d2B2 (BG)(Bd) (BG)(Bd)|d2c2 (AF)(Ac) (AF)(Ac)|
B2AB c2B2 A2G2\
|1 (FG)AF G6 B2:|2 (FG)AF G8:|
W: En sup till, det beh\"over jag,
W: f\aa{}r jag inte det s\aa{} m\aa{}r jag inte bra,
W: En, tv\aa{}, tre, fyra eller fem,
W: f\aa{}r jag inte det s\aa{} g\aa{}r jag inte hem
W: Tralaraddiraddiraddiraddiralla etc.
W:
W: (translation:
W: One more drink, that's what I need,
W: If I don't get one, I won't feel well at all,
W: One, two, three, four or five,
W: If I don't get that, I won't go home
W: Tralaraddiraddiraddiraddiralla etc)
